public/logo.svg

<svg width="314" height="193" viewBox="0 0 314 193" fill="none" xmlns="http://www.w3.org/2000/svg">
<path d="M159.174 99.7792L159.166 99.7568L159.159 99.7792H159.174Z" fill="white"/>
<path d="M62.2133 105.996L39.2511 114.098V115.154L61.6412 107.248L62.2133 105.996Z" fill="white"/>
<path d="M62.1165 110.099L67.0945 99.1919H68.1533L73.0644 110.099H72.0911L70.4825 106.604H64.6798L63.0712 110.099H62.1165ZM70.1631 105.904L67.5812 100.037L64.9361 105.904H70.1631Z" fill="white"/>
<path d="M94.1915 110.099V99.1919H100.184C101.046 99.1919 101.777 99.4726 102.387 100.037C102.992 100.589 103.297 101.264 103.297 102.061C103.297 102.761 103.115 103.368 102.747 103.881C102.364 104.397 101.893 104.697 101.328 104.781C101.852 104.904 102.275 105.291 102.598 105.939C102.922 106.588 103.085 107.375 103.085 108.295C103.085 108.811 103.1 109.195 103.126 109.454C103.156 109.76 103.211 109.973 103.297 110.096H102.45C102.309 109.947 102.216 109.679 102.175 109.286L102.112 107.724C102.112 106.988 101.907 106.356 101.499 105.83C101.105 105.313 100.615 105.058 100.039 105.058H95.0423V110.099H94.1915ZM100.039 104.378C100.704 104.378 101.272 104.158 101.755 103.716C102.22 103.287 102.454 102.761 102.454 102.135C102.454 101.522 102.22 100.996 101.755 100.554C101.276 100.124 100.704 99.9115 100.039 99.9115H95.0423V104.381H100.039V104.378Z" fill="white"/>
<path d="M126.1 108.701C124.971 107.584 124.406 106.236 124.406 104.654C124.406 103.073 124.971 101.718 126.1 100.588C127.214 99.4718 128.57 98.9136 130.164 98.9136C131.475 98.9136 132.586 99.2201 133.489 99.8333C134.392 100.433 134.949 101.243 135.161 102.26H134.314C134.158 101.498 133.686 100.869 132.895 100.366C132.118 99.8623 131.208 99.6106 130.164 99.6106C128.808 99.6106 127.653 100.101 126.691 101.082C125.732 102.076 125.249 103.264 125.249 104.651C125.249 106.039 125.728 107.226 126.691 108.22C127.649 109.201 128.808 109.692 130.164 109.692C131.323 109.692 132.274 109.398 133.021 108.807C133.782 108.22 134.213 107.433 134.314 106.452H135.161C135.049 107.642 134.533 108.591 133.615 109.304C132.713 110.014 131.561 110.372 130.164 110.372C128.57 110.372 127.214 109.817 126.1 108.701Z" fill="white"/>
<path d="M155.358 110.099L160.336 99.1919H161.395L166.306 110.099H165.333L163.724 106.604H157.922L156.313 110.099H155.358ZM163.405 105.904L160.823 100.037L158.178 105.904H163.405Z" fill="white"/>
<path d="M187.433 99.1919H192.411C193.738 99.1919 194.874 99.7114 195.822 100.754C196.754 101.783 197.219 103.035 197.219 104.507C197.219 106.052 196.754 107.369 195.822 108.463C194.874 109.554 193.738 110.099 192.411 110.099H187.433V99.1919ZM192.411 109.399C193.5 109.399 194.429 108.921 195.205 107.963C195.981 107.008 196.368 105.852 196.368 104.503C196.368 103.229 195.981 102.145 195.205 101.247C194.429 100.354 193.496 99.905 192.411 99.905H188.28V109.396H192.411V109.399Z" fill="white"/>
<path d="M218.81 110.099V99.1919H219.657V110.099H218.81Z" fill="white"/>
<path d="M251.651 105.924L252.212 107.176L274.621 115.405V114.362L251.651 105.924Z" fill="white"/>
<path d="M242.472 102.553L178.604 79.0961L164.918 79.3284L161.679 78.4571L147.607 79.1348L142.714 77.5762L71.5168 102.711L71.9255 103.618L142.952 78.541L147.681 80.048L161.575 79.38L163.949 80.0157H178.972L180.978 81.0129L242.063 103.447L242.472 102.553Z" fill="white"/>
<path d="M240.806 110.099L245.784 99.1919H246.843L251.754 110.099H250.781L249.172 106.604H243.369L241.761 110.099H240.806ZM248.853 105.904L246.271 100.037L243.626 105.904H248.853Z" fill="white"/>
</svg>

<svg width="314" height="193" fill="none" xmlns="http://www.w3.org/2000/svg"><path d="M159.174 99.78l-.008-.023-.007.022h.015zm-96.96 6.216l-22.963 8.102v1.056l22.39-7.906.572-1.252zm-.097 4.103l4.977-10.907h1.06l4.91 10.907h-.973l-1.608-3.495H64.68l-1.609 3.495h-.954zm8.046-4.195l-2.582-5.867-2.645 5.867h5.227zm24.029 4.195V99.192h5.992c.862 0 1.593.28 2.203.845.605.552.91 1.227.91 2.024 0 .7-.182 1.307-.55 1.82-.383.516-.854.816-1.419.9.524.123.947.51 1.27 1.158.324.649.487 1.436.487 2.356 0 .516.015.9.041 1.159.03.306.085.519.171.642h-.847c-.141-.149-.234-.417-.275-.81l-.063-1.562c0-.736-.205-1.368-.613-1.894-.394-.517-.884-.772-1.46-.772h-4.997v5.041h-.85zm5.847-5.721a2.45 2.45 0 0 0 1.716-.662c.465-.429.699-.955.699-1.581 0-.613-.234-1.139-.699-1.581-.479-.43-1.051-.642-1.716-.642h-4.997v4.469h4.997v-.003zm26.061 4.323c-1.129-1.117-1.694-2.465-1.694-4.047 0-1.581.565-2.936 1.694-4.066 1.114-1.116 2.47-1.674 4.064-1.674 1.311 0 2.422.306 3.325.92.903.599 1.46 1.409 1.672 2.426h-.847c-.156-.762-.628-1.391-1.419-1.894-.777-.504-1.687-.755-2.731-.755-1.356 0-2.511.49-3.473 1.471-.959.994-1.442 2.182-1.442 3.569 0 1.388.479 2.575 1.442 3.569.958.981 2.117 1.472 3.473 1.472 1.159 0 2.11-.294 2.857-.885.761-.587 1.192-1.374 1.293-2.355h.847c-.112 1.19-.628 2.139-1.546 2.852-.902.71-2.054 1.068-3.451 1.068-1.594 0-2.95-.555-4.064-1.671zm29.258 1.398l4.978-10.907h1.059l4.911 10.907h-.973l-1.609-3.495h-5.802l-1.609 3.495h-.955zm8.047-4.195l-2.582-5.867-2.645 5.867h5.227zm24.028-6.712h4.978c1.327 0 2.463.52 3.411 1.562.932 1.029 1.397 2.281 1.397 3.753 0 1.545-.465 2.862-1.397 3.956-.948 1.091-2.084 1.636-3.411 1.636h-4.978V99.192zm4.978 10.207c1.089 0 2.018-.478 2.794-1.436.776-.955 1.163-2.111 1.163-3.46 0-1.274-.387-2.358-1.163-3.256-.776-.893-1.709-1.342-2.794-1.342h-4.131v9.491h4.131v.003zm26.399.7V99.192h.847v10.907h-.847zm32.841-4.175l.561 1.252 22.409 8.229v-1.043l-22.97-8.438z" fill="#fff"/><path d="M242.472 102.553l-63.868-23.457-13.686.232-3.239-.87-14.072.677-4.893-1.559-71.197 25.135.409.907 71.026-25.077 4.729 1.507 13.894-.668 2.374.636h15.023l2.006.997 61.085 22.434.409-.894zm-1.666 7.546l4.978-10.907h1.059l4.911 10.907h-.973l-1.609-3.495h-5.803l-1.608 3.495h-.955zm8.047-4.195l-2.582-5.867-2.645 5.867h5.227z" fill="#fff"/></svg>
